-----BEGIN PGP PUBLIC KEY BLOCK-----

mDMEai81hhYJKwYBBAHaRw8BAQdA3K5aVptpwlNaQjBRZ2GhX1+kVDCUs51/W3qV
4L1MIou0LlJvbWFuIER1a2huaXRza3lpIDxyb21hbmR1a2huaXRza3lpQGdtYWls
LmNvbT6ImQQTFgoAQRYhBByQGS964Zxtl1pGNuXo3veSV64OBQJqLzWGAhsDBQkF
o5qABQsJCAcCAiICBhUKCQgLAgQWAgMBAh4HAheAAAoJEOXo3veSV64OIoYBAP4c
BuXTZsoqhn0l/qrj5OibM2tNw7nyFkl3ayYyXkUqAP0bnQph6kd5Vzok8Oi1bN5j
5KZHks6a2kgNG+QMA7l3CLg4BGovNYYSCisGAQQBl1UBBQEBB0BtQI0m+/2aQ8sZ
LxYCSwqf1fVhTjnN1YnPG7MzBT/ZOQMBCAeIfgQYFgoAJhYhBByQGS964Zxtl1pG
NuXo3veSV64OBQJqLzWGAhsMBQkFo5qAAAoJEOXo3veSV64ONykBAP6tKconIqFP
k6ubHZg7kqkU14x6OQrwA6Z3nNHegyckAP9nmiqM+BJh7IMZA2m1OIGZzuzAT6rY
q0LUopv9ACXTBZgzBGovPbgWCSsGAQQB2kcPAQEHQFFVaZ6qudW6O2Q6cQilLZIw
CfwEcKFrkQgodRyDgH5OtBFSb21hbiBEdWtobml0c2t5aYiZBBMWCgBBFiEELkxs
IBxv0faDPDYtsTZwrwVDEIsFAmovPbgCGwMFCQWjmoAFCwkIBwICIgIGFQoJCAsC
BBYCAwECHgcCF4AACgkQsTZwrwVDEItSDgEA3FSOrH2kG1nPyh6f60k3QYy1XsXS
5XuYnSqv5ssbsSkBAMe9U5PMniorwt0oFE4vMZupgZ9XPMiHh3BPpZBf2D4IuDgE
ai89uBIKKwYBBAGXVQEFAQEHQJhbc96gh/+iogqfBOYf23QHEJqYfNi9BcCXebjj
H7ZlAwEIB4h+BBgWCgAmFiEELkxsIBxv0faDPDYtsTZwrwVDEIsFAmovPbgCGwwF
CQWjmoAACgkQsTZwrwVDEIs04QEA/ITGnJAHEcU5D8xHMV+J3Fq0U5+4DiI5Ow5p
UhnfwUIBAJSaYpKqHI6bSPCRYrPgGpuVa24u1xuDW3/hF9rYxegN
=vyv5
-----END PGP PUBLIC KEY BLOCK-----
